src/images_karasa_jaga_svg/cmd/32/extrusiondepthfloater.svg

<svg height="32" viewBox="0 0 8.4666665 8.466667" width="32" xmlns="http://www.w3.org/2000/svg" xmlns:xlink="http://www.w3.org/1999/xlink"><linearGradient id="a"><stop offset="0" stop-color="#c4d2f2"/><stop offset="1" stop-color="#c7d5f4"/></linearGradient><linearGradient id="b" gradientUnits="userSpaceOnUse" x1="2.116667" x2="16.933332" y1="288.53333" y2="280.06665"><stop offset="0" stop-color="#f1f6fd"/><stop offset="1" stop-color="#d7e2fa"/></linearGradient><linearGradient id="c" gradientUnits="userSpaceOnUse" x1="16.933332" x2="27.516666" xlink:href="#a" y1="273.71664" y2="267.36667"/><linearGradient id="d" gradientUnits="userSpaceOnUse" x1="21.034374" x2="31.882292" xlink:href="#a" y1="280.16223" y2="280.16223"/><linearGradient id="e" gradientUnits="userSpaceOnUse" x1="16.933332" x2="27.516666" xlink:href="#h" y1="273.71664" y2="267.36667"/><linearGradient id="f" gradientUnits="userSpaceOnUse" x1="21.034374" x2="31.882292" xlink:href="#h" y1="280.16223" y2="280.16223"/><linearGradient id="g" gradientUnits="userSpaceOnUse" x1="1.058333" x2="9.016917" y1="268.42499" y2="247.28397"><stop offset="0" stop-color="#0968ef"/><stop offset="1" stop-color="#aecffc"/></linearGradient><linearGradient id="h"><stop offset="0" stop-color="#7c9bce"/><stop offset="1" stop-color="#7c9bce"/></linearGradient><linearGradient id="i" gradientTransform="matrix(1.1176471 0 0 1.1176473 -1.307353 -33.633904)" gradientUnits="userSpaceOnUse" x1="2.116667" x2="16.933332" xlink:href="#h" y1="288.53333" y2="280.06665"/><g transform="matrix(.25 0 0 .25 0 -65.78333)"><g fill-rule="evenodd"><path d="m21.166016 264.19336a1.0566635 1.0566635 0 0 0 -.513672.13281l-19.0488284 10.58399a1.0566635 1.0566635 0 0 0 .5136719 1.98046h19.0488285a1.0566635 1.0566635 0 0 0 .748046-.30859l10.583985-10.58398a1.0566635 1.0566635 0 0 0 -.748047-1.80469z" fill="url(#e)"/><path d="m2.1166666 275.83332 19.0499994-10.58333h10.583334l-10.583334 10.58333z" fill="url(#c)"/><path d="m31.71875 264.19141a1.0594456 1.0594456 0 0 0 -.71875.30859l-10.583984 10.58398a1.0594456 1.0594456 0 0 0 -.308594.75v19.04883a1.0594456 1.0594456 0 0 0 1.984375.51367l10.583984-19.04882a1.0594456 1.0594456 0 0 0 .132813-.51368v-10.58398a1.0594456 1.0594456 0 0 0 -1.089844-1.05859z" fill="url(#f)"/><path d="m21.166666 294.88332 10.583334-19.05v-10.58333l-10.583334 10.58333z" fill="url(#d)"/><path d="m60 14.541016-11.841797 6.580078a4.0008934 4.0008934 0 0 0 3.839844 2.882812h4a4.0008934 4.0008934 0 0 0 4.001953-4zm-33.306641 18.505859-19.7148434 10.955078h17.0195314a4.0008934 4.0008934 0 0 0 4.001953-4.001953v-4a4.0008934 4.0008934 0 0 0 -1.306641-2.953125z" fill="#fff" fill-opacity=".882353" transform="matrix(.26458333 0 0 .26458333 0 263.13332)"/><path d="m0 267.36665v6.35h6.3499997v-1.05833h-4.2333331l11.6416664-7.40833v3.175h1.058333v-5.29167h-6.3499997v1.05833h4.2333327l-11.6416657 7.40834v-4.23334z" fill="url(#g)"/></g><rect fill="url(#i)" height="20.108351" rx="1.058333" ry="1.058341" width="20.108334" x="1.058333" y="275.83331"/><path d="m2.116667 276.89166h17.991667v17.991678h-17.991667z" fill="url(#b)"/></g></svg>

<?xml version="1.0" encoding="UTF-8" standalone="no"?>
<!-- Created with Inkscape (http://www.inkscape.org/) -->

<svg
   xmlns:dc="http://purl.org/dc/elements/1.1/"
   xmlns:cc="http://creativecommons.org/ns#"
   xmlns:rdf="http://www.w3.org/1999/02/22-rdf-syntax-ns#"
   xmlns:svg="http://www.w3.org/2000/svg"
   xmlns="http://www.w3.org/2000/svg"
   xmlns:xlink="http://www.w3.org/1999/xlink"
   xmlns:sodipodi="http://sodipodi.sourceforge.net/DTD/sodipodi-0.dtd"
   xmlns:inkscape="http://www.inkscape.org/namespaces/inkscape"
   width="128"
   height="128"
   viewBox="0 0 33.866666 33.866668"
   version="1.1"
   id="svg8"
   inkscape:version="0.92.3 (unknown)"
   sodipodi:docname="extrusiondepthfloater.svg"
   inkscape:export-filename="/home/rizmut/Dokumen/Rizmut/Github/libreoffice-style-karasa-jaga/build/images_karasa_jaga/cmd/32/extrusiondepthfloater.png"
   inkscape:export-xdpi="24"
   inkscape:export-ydpi="24">
  <defs
     id="defs2">
    <linearGradient
       inkscape:collect="always"
       id="linearGradient938">
      <stop
         style="stop-color:#c4d2f2;stop-opacity:1;"
         offset="0"
         id="stop934" />
      <stop
         style="stop-color:#c7d5f4;stop-opacity:1"
         offset="1"
         id="stop936" />
    </linearGradient>
    <linearGradient
       inkscape:collect="always"
       id="linearGradient930">
      <stop
         style="stop-color:#f1f6fd;stop-opacity:1;"
         offset="0"
         id="stop926" />
      <stop
         style="stop-color:#d7e2fa;stop-opacity:1"
         offset="1"
         id="stop928" />
    </linearGradient>
    <linearGradient
       inkscape:collect="always"
       xlink:href="#linearGradient930"
       id="linearGradient932"
       x1="2.1166666"
       y1="288.53333"
       x2="16.933332"
       y2="280.06665"
       gradientUnits="userSpaceOnUse" />
    <linearGradient
       inkscape:collect="always"
       xlink:href="#linearGradient938"
       id="linearGradient940"
       x1="16.933332"
       y1="273.71664"
       x2="27.516666"
       y2="267.36667"
       gradientUnits="userSpaceOnUse" />
    <linearGradient
       inkscape:collect="always"
       xlink:href="#linearGradient938"
       id="linearGradient948"
       x1="21.034374"
       y1="280.16223"
       x2="31.882292"
       y2="280.16223"
       gradientUnits="userSpaceOnUse" />
    <linearGradient
       inkscape:collect="always"
       xlink:href="#linearGradient841-6"
       id="linearGradient849"
       gradientUnits="userSpaceOnUse"
       x1="16.933332"
       y1="273.71664"
       x2="27.516666"
       y2="267.36667" />
    <linearGradient
       inkscape:collect="always"
       xlink:href="#linearGradient841-6"
       id="linearGradient855"
       gradientUnits="userSpaceOnUse"
       x1="21.034374"
       y1="280.16223"
       x2="31.882292"
       y2="280.16223" />
    <linearGradient
       id="m"
       gradientTransform="matrix(0,0.46174514,0.80805411,0,-25.106709,262.35319)"
       gradientUnits="userSpaceOnUse"
       x1="95.126495"
       x2="64.143654"
       xlink:href="#g"
       y1="20.031025"
       y2="20.031025" />
    <linearGradient
       id="g">
      <stop
         offset="0"
         stop-color="#0968ef"
         id="stop1175" />
      <stop
         offset="1"
         stop-color="#aecffc"
         id="stop1177" />
    </linearGradient>
    <linearGradient
       inkscape:collect="always"
       xlink:href="#g"
       id="linearGradient1893"
       x1="1.0583333"
       y1="268.42499"
       x2="9.0169172"
       y2="247.28397"
       gradientUnits="userSpaceOnUse" />
    <linearGradient
       inkscape:collect="always"
       id="linearGradient841-6">
      <stop
         style="stop-color:#7c9bce;stop-opacity:1"
         offset="0"
         id="stop837-7" />
      <stop
         style="stop-color:#7c9bce;stop-opacity:1"
         offset="1"
         id="stop839-5" />
    </linearGradient>
    <linearGradient
       inkscape:collect="always"
       xlink:href="#linearGradient841-6"
       id="linearGradient843"
       gradientUnits="userSpaceOnUse"
       x1="2.1166666"
       y1="288.53333"
       x2="16.933332"
       y2="280.06665"
       gradientTransform="matrix(1.1176471,0,0,1.1176473,-1.307353,-33.633904)" />
  </defs>
  <sodipodi:namedview
     id="base"
     pagecolor="#ffffff"
     bordercolor="#666666"
     borderopacity="1.0"
     inkscape:pageopacity="0.0"
     inkscape:pageshadow="2"
     inkscape:zoom="2.8284271"
     inkscape:cx="51.835699"
     inkscape:cy="48.425874"
     inkscape:document-units="mm"
     inkscape:current-layer="layer1"
     showgrid="true"
     units="px"
     inkscape:lockguides="false"
     inkscape:window-width="1366"
     inkscape:window-height="706"
     inkscape:window-x="0"
     inkscape:window-y="0"
     inkscape:window-maximized="1"
     inkscape:snap-global="true">
    <inkscape:grid
       type="xygrid"
       id="grid815"
       spacingx="1.0583333"
       spacingy="1.0583333"
       empspacing="2" />
  </sodipodi:namedview>
  <metadata
     id="metadata5">
    <rdf:RDF>
      <cc:Work
         rdf:about="">
        <dc:format>image/svg+xml</dc:format>
        <dc:type
           rdf:resource="http://purl.org/dc/dcmitype/StillImage" />
        <dc:title />
      </cc:Work>
    </rdf:RDF>
  </metadata>
  <g
     inkscape:label="Layer 1"
     inkscape:groupmode="layer"
     id="layer1"
     transform="translate(0,-263.13332)">
    <path
       sodipodi:type="inkscape:offset"
       inkscape:radius="1.0565579"
       inkscape:original="M 21.166016 265.25 L 2.1171875 275.83398 L 21.166016 275.83398 L 31.75 265.25 L 21.166016 265.25 z "
       style="fill:url(#linearGradient849);fill-opacity:1.0;fill-rule:evenodd;stroke:none;stroke-width:0.5;stroke-linecap:butt;stroke-linejoin:miter;stroke-miterlimit:4;stroke-dasharray:none;stroke-opacity:0.95686275"
       id="path847"
       d="m 21.166016,264.19336 a 1.0566635,1.0566635 0 0 0 -0.513672,0.13281 L 1.6035156,274.91016 a 1.0566635,1.0566635 0 0 0 0.5136719,1.98046 H 21.166016 a 1.0566635,1.0566635 0 0 0 0.748046,-0.30859 L 32.498047,265.99805 A 1.0566635,1.0566635 0 0 0 31.75,264.19336 Z" />
    <path
       style="fill:url(#linearGradient940);fill-rule:evenodd;stroke:none;stroke-width:0.5;stroke-linecap:butt;stroke-linejoin:miter;stroke-opacity:0.95686275;fill-opacity:1;stroke-miterlimit:4;stroke-dasharray:none"
       d="M 2.1166666,275.83332 21.166666,265.24999 H 31.75 l -10.583334,10.58333 z"
       id="path920"
       inkscape:connector-curvature="0" />
    <path
       sodipodi:type="inkscape:offset"
       inkscape:radius="1.0593396"
       inkscape:original="M 31.75 265.25 L 21.166016 275.83398 L 21.166016 294.88281 L 31.75 275.83398 L 31.75 265.25 z "
       style="fill:url(#linearGradient855);fill-opacity:1.0;fill-rule:evenodd;stroke:none;stroke-width:0.5;stroke-linecap:butt;stroke-linejoin:miter;stroke-miterlimit:4;stroke-dasharray:none;stroke-opacity:0.95686275"
       id="path853"
       d="M 31.71875,264.19141 A 1.0594456,1.0594456 0 0 0 31,264.5 l -10.583984,10.58398 a 1.0594456,1.0594456 0 0 0 -0.308594,0.75 v 19.04883 a 1.0594456,1.0594456 0 0 0 1.984375,0.51367 l 10.583984,-19.04882 a 1.0594456,1.0594456 0 0 0 0.132813,-0.51368 V 265.25 a 1.0594456,1.0594456 0 0 0 -1.089844,-1.05859 z" />
    <path
       style="fill:url(#linearGradient948);fill-rule:evenodd;stroke:none;stroke-width:0.5;stroke-linecap:butt;stroke-linejoin:miter;stroke-opacity:0.95686275;fill-opacity:1;stroke-miterlimit:4;stroke-dasharray:none"
       d="M 21.166666,294.88332 31.75,275.83332 v -10.58333 l -10.583334,10.58333 z"
       id="path922"
       inkscape:connector-curvature="0" />
    <path
       style="fill:#ffffff;fill-opacity:0.88235295;fill-rule:evenodd;stroke:none;stroke-width:0.99999994px;stroke-linecap:butt;stroke-linejoin:miter;stroke-opacity:1"
       d="M 60 14.541016 L 48.158203 21.121094 A 4.0008934 4.0008934 0 0 0 51.998047 24.003906 L 55.998047 24.003906 A 4.0008934 4.0008934 0 0 0 60 20.003906 L 60 14.541016 z M 26.693359 33.046875 L 6.9785156 44.001953 L 23.998047 44.001953 A 4.0008934 4.0008934 0 0 0 28 40 L 28 36 A 4.0008934 4.0008934 0 0 0 26.693359 33.046875 z "
       transform="matrix(0.26458333,0,0,0.26458333,0,263.13332)"
       id="path1895" />
    <path
       style="fill:url(#linearGradient1893);fill-opacity:1;fill-rule:evenodd;stroke:none;stroke-width:0.26458332px;stroke-linecap:butt;stroke-linejoin:miter;stroke-opacity:1"
       d="m 0,267.36665 v 6.35 h 6.3499997 v -1.05833 l -4.2333331,0 11.6416664,-7.40833 v 3.175 h 1.058333 v -5.29167 H 8.4666663 v 1.05833 h 4.2333327 l -11.6416657,7.40834 v -4.23334 z"
       id="path924"
       inkscape:connector-curvature="0"
       sodipodi:nodetypes="ccccccccccccccc" />
    <rect
       y="275.83331"
       x="1.0583333"
       height="20.108351"
       width="20.108334"
       id="rect841"
       style="opacity:1;fill:url(#linearGradient843);fill-opacity:1.0;stroke:none;stroke-width:0.55882359;stroke-linecap:square;stroke-linejoin:round;stroke-miterlimit:4;stroke-dasharray:none;stroke-dashoffset:0;stroke-opacity:0.95686275"
       ry="1.058341"
       rx="1.0583333" />
    <rect
       style="opacity:1;fill:url(#linearGradient932);fill-opacity:1;stroke:none;stroke-width:0.5;stroke-linecap:square;stroke-linejoin:round;stroke-miterlimit:4;stroke-dasharray:none;stroke-dashoffset:0;stroke-opacity:0.95686275"
       id="rect918"
       width="17.991667"
       height="17.991678"
       x="2.1166666"
       y="276.89166" />
  </g>
</svg>
